symbols/web/notifications_active/materialsymbolsoutlined/notifications_active_wght600grad200_20px.svg

<svg xmlns="http://www.w3.org/2000/svg" height="20" width="20"><path d="M0 8.625q0-2.146.844-4.073.844-1.927 2.427-3.344l1.687 1.75Q3.75 4.042 3.104 5.51q-.646 1.469-.646 3.115Zm17.521 0q0-1.625-.656-3.094Q16.208 4.062 15 2.958l1.708-1.75q1.563 1.417 2.417 3.344.854 1.927.854 4.073ZM2.417 16.208v-2.646h1.791V8.583q0-1.875 1.115-3.416Q6.438 3.625 8.25 3.125v-.521q0-.729.51-1.239Q9.271.854 10 .854t1.24.511q.51.51.51 1.239v.521q1.833.479 2.927 2.031t1.094 3.427v4.979h1.833v2.646ZM10 9.479Zm.021 9.604q-.854 0-1.417-.562-.562-.563-.562-1.396h3.937q0 .833-.573 1.396-.573.562-1.385.562Zm-3.167-5.521h6.271V8.604q0-1.312-.906-2.219-.907-.906-2.219-.906-1.312 0-2.229.906-.917.907-.917 2.219Z"/></svg>

<svg xmlns="http://www.w3.org/2000/svg" height="20" width="20"><path d="M0 8.625Q0 6.479 0.844 4.552Q1.688 2.625 3.271 1.208L4.958 2.958Q3.75 4.042 3.104 5.51Q2.458 6.979 2.458 8.625ZM17.521 8.625Q17.521 7 16.865 5.531Q16.208 4.062 15 2.958L16.708 1.208Q18.271 2.625 19.125 4.552Q19.979 6.479 19.979 8.625ZM2.417 16.208V13.562H4.208V8.583Q4.208 6.708 5.323 5.167Q6.438 3.625 8.25 3.125V2.604Q8.25 1.875 8.76 1.365Q9.271 0.854 10 0.854Q10.729 0.854 11.24 1.365Q11.75 1.875 11.75 2.604V3.125Q13.583 3.604 14.677 5.156Q15.771 6.708 15.771 8.583V13.562H17.604V16.208ZM10 9.479Q10 9.479 10 9.479Q10 9.479 10 9.479Q10 9.479 10 9.479Q10 9.479 10 9.479ZM10.021 19.083Q9.167 19.083 8.604 18.521Q8.042 17.958 8.042 17.125H11.979Q11.979 17.958 11.406 18.521Q10.833 19.083 10.021 19.083ZM6.854 13.562H13.125V8.604Q13.125 7.292 12.219 6.385Q11.312 5.479 10 5.479Q8.688 5.479 7.771 6.385Q6.854 7.292 6.854 8.604Z"/></svg>
